lib/healthicons/icons/solid/typography/7.svg

<svg fill="none" height="48" viewBox="0 0 48 48" width="48" xmlns="http://www.w3.org/2000/svg"><path clip-rule="evenodd" d="m14 12c0-1.1046.8954-2 2-2h16c.782 0 1.4922.4557 1.8181 1.1666.3258.7108.2075 1.5464-.3029 2.1388-1.7607 2.0437-4.3626 5.7228-6.6787 9.9761-2.3265 4.2722-4.2669 8.947-4.8573 13.0064-.159 1.093-1.174 1.8503-2.2671 1.6913-1.093-.159-1.8503-1.174-1.6913-2.2671.6896-4.7406 2.8825-9.8991 5.3027-14.3436 1.4954-2.746 3.1147-5.2867 4.5988-7.3685h-11.9223c-1.1046 0-2-.8954-2-2z" fill="#333" fill-rule="evenodd"/></svg>

<svg width="48" height="48" viewBox="0 0 48 48" fill="none" xmlns="http://www.w3.org/2000/svg">
<path fill-rule="evenodd" clip-rule="evenodd" d="M14 12C14 10.8954 14.8954 10 16 10H32C32.782 10 33.4922 10.4557 33.8181 11.1666C34.1439 11.8774 34.0256 12.713 33.5152 13.3054C31.7545 15.3491 29.1526 19.0282 26.8365 23.2815C24.51 27.5537 22.5696 32.2285 21.9792 36.2879C21.8202 37.3809 20.8052 38.1382 19.7121 37.9792C18.6191 37.8202 17.8618 36.8052 18.0208 35.7121C18.7104 30.9715 20.9033 25.813 23.3235 21.3685C24.8189 18.6225 26.4382 16.0818 27.9223 14H16C14.8954 14 14 13.1046 14 12Z" fill="#333333"/>
</svg>
